Adwaita++/apps/scalable/preferences-desktop-cursors.svg

<svg fill="none" height="128" viewBox="0 0 128 128" width="128" xmlns="http://www.w3.org/2000/svg" xmlns:xlink="http://www.w3.org/1999/xlink">
  <linearGradient id="paint0_linear" gradientUnits="userSpaceOnUse" x1="116" x2="12" y1="117.999" y2="117.999">
    <stop offset="0" stop-color="#d5d3cf"/>
    <stop offset=".038" stop-color="#e3e2df"/>
    <stop offset=".077" stop-color="#c0bfbc"/>
    <stop offset=".923" stop-color="#c0bfbc"/>
    <stop offset=".962" stop-color="#e3e2df"/>
    <stop offset="1" stop-color="#d5d3cf"/>
  </linearGradient>
  <path d="m108 68h-88c-4.4183 0-8 3.5817-8 8v32c0 4.418 3.5817 8 8 8h88c4.418 0 8-3.582 8-8v-32c0-4.4183-3.582-8-8-8z" fill="url(#paint0_linear)"/>
  <path d="m20 10c-4.432 0-8 3.568-8 8v42 42c0 4.432 3.568 8 8 8h44 44c4.432 0 8-3.568 8-8v-42-42c0-4.432-3.568-8-8-8z" fill="#2ec27e"/>
  <path d="m28.0954 31.1173v50.6841c0 1.6567 1.5078 3.1677 3.1677 3.1677h11.3849l8.5086 8.5118c.9345.9376 2.4835 1.1879 3.6619.5955l3.1678-1.5839c1.039-.5068 1.7549-1.6155 1.7834-2.7717v-11.3849l8.6131-8.6132c1.1563-1.172 1.1563-3.2818 0-4.4538l-34.8452-36.4292c-2.5976-2.5975-5.4993-.7444-5.4454 2.2776z" fill="#3d3846" opacity=".75"/>
  <path d="m75.125 27.6042c-.5523 0-1 .4477-1 1v7.5416c0 .5523.4477 1 1 1h8.5417v47.7084h-8.5417c-.5523 0-1 .4477-1 1v7.5416c0 .5523.4477 1 1 1h26.625c.552 0 1-.4477 1-1v-7.5416c0-.5523-.448-1-1-1h-8.5417v-47.7084h8.5417c.552 0 1-.4477 1-1v-7.5416c0-.5523-.448-1-1-1z" fill="#3d3846" opacity=".75"/>
  <path d="m27.0954 30.1173v50.6841c0 1.6567 1.5078 3.1677 3.1677 3.1677h11.3849l8.5086 8.5118c.9345.9376 2.4835 1.1879 3.6619.5955l3.1678-1.5839c1.039-.5068 1.7549-1.6155 1.7834-2.7717v-11.3849l8.6131-8.6132c1.1563-1.172 1.1563-3.2818 0-4.4538l-34.8452-36.4292c-2.5976-2.5975-5.4993-.7444-5.4454 2.2776z" fill="#fff"/>
  <path d="m30.2631 80.7602v-50.6841l34.8452 36.4292-9.5032 9.5032v12.6711l-3.1678 1.5838-9.5032-9.5032z" fill="#4d4d4d"/>
  <path d="m74.125 26.6042c-.5523 0-1 .4477-1 1v7.5416c0 .5523.4477 1 1 1h8.5417v47.7084h-8.5417c-.5523 0-1 .4477-1 1v7.5416c0 .5523.4477 1 1 1h26.625c.552 0 1-.4477 1-1v-7.5416c0-.5523-.448-1-1-1h-8.5417v-47.7084h8.5417c.552 0 1-.4477 1-1v-7.5416c0-.5523-.448-1-1-1z" fill="#f6f5f4"/>
</svg>

<svg width="128" height="128" viewBox="0 0 128 128" fill="none" xmlns="http://www.w3.org/2000/svg">
<path d="M108 68H20C15.5817 68 12 71.5817 12 76V108C12 112.418 15.5817 116 20 116H108C112.418 116 116 112.418 116 108V76C116 71.5817 112.418 68 108 68Z" fill="url(#paint0_linear)"/>
<path d="M20 10C15.568 10 12 13.568 12 18V60V102C12 106.432 15.568 110 20 110H64H108C112.432 110 116 106.432 116 102V60V18C116 13.568 112.432 10 108 10H20Z" fill="url(#paint1_linear)"/>
<path opacity="0.75" d="M28.0954 31.1173V81.8014C28.0954 83.4581 29.6032 84.9691 31.2631 84.9691H42.648L51.1566 93.4809C52.0911 94.4185 53.6401 94.6688 54.8185 94.0764L57.9863 92.4925C59.0253 91.9857 59.7412 90.877 59.7697 89.7208V78.3359L68.3828 69.7227C69.5391 68.5507 69.5391 66.4409 68.3828 65.2689L33.5376 28.8397C30.94 26.2422 28.0383 28.0953 28.0922 31.1173H28.0954Z" fill="url(#paint2_linear)"/>
<path opacity="0.75" d="M75.125 27.6042C74.5727 27.6042 74.125 28.0519 74.125 28.6042V36.1458C74.125 36.6981 74.5727 37.1458 75.125 37.1458H83.6667V84.8542H75.125C74.5727 84.8542 74.125 85.3019 74.125 85.8542V93.3958C74.125 93.9481 74.5727 94.3958 75.125 94.3958H101.75C102.302 94.3958 102.75 93.9481 102.75 93.3958V85.8542C102.75 85.3019 102.302 84.8542 101.75 84.8542H93.2083V37.1458H101.75C102.302 37.1458 102.75 36.6981 102.75 36.1458V28.6042C102.75 28.0519 102.302 27.6042 101.75 27.6042H75.125Z" fill="url(#paint3_linear)"/>
<path d="M27.0954 30.1173V80.8014C27.0954 82.4581 28.6032 83.9691 30.2631 83.9691H41.648L50.1566 92.4809C51.0911 93.4185 52.6401 93.6688 53.8185 93.0764L56.9863 91.4925C58.0253 90.9857 58.7412 89.877 58.7697 88.7208V77.3359L67.3828 68.7227C68.5391 67.5507 68.5391 65.4409 67.3828 64.2689L32.5376 27.8397C29.94 25.2422 27.0383 27.0953 27.0922 30.1173H27.0954Z" fill="white"/>
<path d="M30.2631 80.7602V30.0761L65.1083 66.5053L55.6051 76.0085V88.6796L52.4373 90.2634L42.9341 80.7602H30.2631Z" fill="#4D4D4D"/>
<path d="M74.125 26.6042C73.5727 26.6042 73.125 27.0519 73.125 27.6042V35.1458C73.125 35.6981 73.5727 36.1458 74.125 36.1458H82.6667V83.8542H74.125C73.5727 83.8542 73.125 84.3019 73.125 84.8542V92.3958C73.125 92.9481 73.5727 93.3958 74.125 93.3958H100.75C101.302 93.3958 101.75 92.9481 101.75 92.3958V84.8542C101.75 84.3019 101.302 83.8542 100.75 83.8542H92.2083V36.1458H100.75C101.302 36.1458 101.75 35.6981 101.75 35.1458V27.6042C101.75 27.0519 101.302 26.6042 100.75 26.6042H74.125Z" fill="url(#paint4_linear)"/>
<defs>
<linearGradient id="paint0_linear" x1="116" y1="117.999" x2="12" y2="117.999" gradientUnits="userSpaceOnUse">
<stop stop-color="#D5D3CF"/>
<stop offset="0.038" stop-color="#E3E2DF"/>
<stop offset="0.077" stop-color="#C0BFBC"/>
<stop offset="0.923" stop-color="#C0BFBC"/>
<stop offset="0.962" stop-color="#E3E2DF"/>
<stop offset="1" stop-color="#D5D3CF"/>
</linearGradient>
<linearGradient id="paint1_linear" x1="12" y1="60" x2="116" y2="60" gradientUnits="userSpaceOnUse">
<stop stop-color="#2EC27E"/>
</linearGradient>
<linearGradient id="paint2_linear" x1="28.0915" y1="61" x2="69.25" y2="61" gradientUnits="userSpaceOnUse">
<stop stop-color="#3D3846"/>
</linearGradient>
<linearGradient id="paint3_linear" x1="74.125" y1="61" x2="102.75" y2="61" gradientUnits="userSpaceOnUse">
<stop stop-color="#3D3846"/>
</linearGradient>
<linearGradient id="paint4_linear" x1="73.125" y1="60" x2="101.75" y2="60" gradientUnits="userSpaceOnUse">
<stop stop-color="#F6F5F4"/>
</linearGradient>
</defs>
</svg>
